src/lib/images/svgs/icon-hdd.svg

<?xml version="1.0" encoding="UTF-8"?> <svg xmlns="http://www.w3.org/2000/svg" xmlns:xlink="http://www.w3.org/1999/xlink" width="64px" height="64px" viewBox="0 0 64 64" version="1.1"> <g id="surface1"> <path style=" stroke:none;fill-rule:nonzero;fill:rgb(93.72549%,26.666667%,26.666667%);fill-opacity:1;" d="M 49.265625 50.632812 L 14.734375 50.632812 C 13.816406 50.632812 13.070312 49.886719 13.070312 48.964844 L 13.070312 2.234375 C 13.070312 1.316406 13.816406 0.570312 14.734375 0.570312 L 49.265625 0.570312 C 50.183594 0.570312 50.929688 1.316406 50.929688 2.234375 L 50.929688 48.964844 C 50.929688 49.882812 50.183594 50.632812 49.265625 50.632812 Z M 14.734375 1.707031 C 14.445312 1.707031 14.207031 1.945312 14.207031 2.234375 L 14.207031 48.964844 C 14.207031 49.257812 14.445312 49.492188 14.734375 49.492188 L 49.265625 49.492188 C 49.554688 49.492188 49.792969 49.257812 49.792969 48.964844 L 49.792969 2.234375 C 49.792969 1.945312 49.554688 1.707031 49.265625 1.707031 Z M 14.734375 1.707031 "/> <path style=" stroke:none;fill-rule:nonzero;fill:rgb(93.72549%,26.666667%,26.666667%);fill-opacity:1;" d="M 33.648438 34.058594 L 33.515625 32.929688 C 40.042969 32.167969 44.960938 26.632812 44.960938 20.054688 C 44.960938 12.90625 39.148438 7.089844 32 7.089844 C 24.851562 7.089844 19.035156 12.90625 19.035156 20.054688 C 19.035156 26.636719 23.957031 32.167969 30.484375 32.929688 L 30.351562 34.058594 C 23.253906 33.230469 17.898438 27.210938 17.898438 20.054688 C 17.898438 12.277344 24.226562 5.953125 32 5.953125 C 39.773438 5.953125 46.101562 12.277344 46.101562 20.054688 C 46.101562 27.210938 40.746094 33.230469 33.648438 34.058594 Z M 33.648438 34.058594 "/> <path style=" stroke:none;fill-rule:nonzero;fill:rgb(93.72549%,26.666667%,26.666667%);fill-opacity:1;" d="M 32 25.015625 C 29.265625 25.015625 27.039062 22.789062 27.039062 20.054688 C 27.039062 17.316406 29.265625 15.09375 32 15.09375 C 34.734375 15.09375 36.960938 17.316406 36.960938 20.054688 C 36.960938 22.789062 34.734375 25.015625 32 25.015625 Z M 32 16.230469 C 29.890625 16.230469 28.175781 17.945312 28.175781 20.054688 C 28.175781 22.160156 29.890625 23.875 32 23.875 C 34.109375 23.875 35.824219 22.160156 35.824219 20.054688 C 35.824219 17.945312 34.109375 16.230469 32 16.230469 Z M 32 16.230469 "/> <path style=" stroke:none;fill-rule:nonzero;fill:rgb(93.72549%,26.666667%,26.666667%);fill-opacity:1;" d="M 32 22.082031 C 30.882812 22.082031 29.972656 21.171875 29.972656 20.054688 C 29.972656 18.933594 30.882812 18.023438 32 18.023438 C 33.117188 18.023438 34.027344 18.933594 34.027344 20.054688 C 34.027344 21.171875 33.117188 22.082031 32 22.082031 Z M 32 19.164062 C 31.507812 19.164062 31.109375 19.5625 31.109375 20.054688 C 31.109375 20.542969 31.507812 20.945312 32 20.945312 C 32.492188 20.945312 32.890625 20.542969 32.890625 20.054688 C 32.890625 19.5625 32.492188 19.164062 32 19.164062 Z M 32 19.164062 "/> <path style=" stroke:none;fill-rule:nonzero;fill:rgb(93.72549%,26.666667%,26.666667%);fill-opacity:1;" d="M 32 42.789062 C 30.921875 42.789062 29.921875 42.304688 29.257812 41.453125 C 28.589844 40.605469 28.355469 39.519531 28.613281 38.472656 L 31.445312 26.886719 C 31.507812 26.632812 31.738281 26.453125 32 26.453125 C 32.261719 26.453125 32.492188 26.632812 32.554688 26.886719 L 35.386719 38.472656 C 35.644531 39.519531 35.410156 40.605469 34.742188 41.453125 C 34.078125 42.304688 33.078125 42.789062 32 42.789062 Z M 32 29.417969 L 29.71875 38.746094 C 29.542969 39.449219 29.703125 40.183594 30.152344 40.753906 C 30.597656 41.324219 31.273438 41.652344 32 41.652344 C 32.726562 41.652344 33.398438 41.324219 33.847656 40.753906 C 34.296875 40.183594 34.453125 39.449219 34.28125 38.746094 Z M 32 29.417969 "/> <path style=" stroke:none;fill-rule:nonzero;fill:rgb(93.72549%,26.666667%,26.666667%);fill-opacity:1;" d="M 32 40.90625 C 31.132812 40.90625 30.429688 40.203125 30.429688 39.335938 C 30.429688 38.46875 31.132812 37.765625 32 37.765625 C 32.867188 37.765625 33.570312 38.46875 33.570312 39.335938 C 33.570312 40.203125 32.867188 40.90625 32 40.90625 Z M 32 38.902344 C 31.761719 38.902344 31.566406 39.097656 31.566406 39.335938 C 31.566406 39.574219 31.761719 39.769531 32 39.769531 C 32.238281 39.769531 32.433594 39.574219 32.433594 39.335938 C 32.433594 39.097656 32.238281 38.902344 32 38.902344 Z M 32 38.902344 "/> <path style=" stroke:none;fill-rule:nonzero;fill:rgb(93.72549%,26.666667%,26.666667%);fill-opacity:1;" d="M 18.492188 7.898438 C 17.425781 7.898438 16.558594 7.03125 16.558594 5.964844 C 16.558594 4.898438 17.425781 4.03125 18.492188 4.03125 C 19.558594 4.03125 20.425781 4.898438 20.425781 5.964844 C 20.425781 7.03125 19.558594 7.898438 18.492188 7.898438 Z M 18.492188 5.167969 C 18.050781 5.167969 17.695312 5.523438 17.695312 5.964844 C 17.695312 6.402344 18.050781 6.761719 18.492188 6.761719 C 18.929688 6.761719 19.289062 6.402344 19.289062 5.964844 C 19.289062 5.523438 18.929688 5.167969 18.492188 5.167969 Z M 18.492188 5.167969 "/> <path style=" stroke:none;fill-rule:nonzero;fill:rgb(93.72549%,26.666667%,26.666667%);fill-opacity:1;" d="M 45.507812 7.898438 C 44.441406 7.898438 43.574219 7.03125 43.574219 5.964844 C 43.574219 4.898438 44.441406 4.03125 45.507812 4.03125 C 46.574219 4.03125 47.441406 4.898438 47.441406 5.964844 C 47.441406 7.03125 46.574219 7.898438 45.507812 7.898438 Z M 45.507812 5.167969 C 45.070312 5.167969 44.710938 5.523438 44.710938 5.964844 C 44.710938 6.402344 45.070312 6.761719 45.507812 6.761719 C 45.949219 6.761719 46.304688 6.402344 46.304688 5.964844 C 46.304688 5.523438 45.949219 5.167969 45.507812 5.167969 Z M 45.507812 5.167969 "/> <path style=" stroke:none;fill-rule:nonzero;fill:rgb(93.72549%,26.666667%,26.666667%);fill-opacity:1;" d="M 45.507812 47.167969 C 44.441406 47.167969 43.574219 46.296875 43.574219 45.230469 C 43.574219 44.164062 44.441406 43.296875 45.507812 43.296875 C 46.574219 43.296875 47.441406 44.164062 47.441406 45.230469 C 47.441406 46.296875 46.574219 47.167969 45.507812 47.167969 Z M 45.507812 44.4375 C 45.070312 44.4375 44.710938 44.792969 44.710938 45.230469 C 44.710938 45.671875 45.070312 46.027344 45.507812 46.027344 C 45.949219 46.027344 46.304688 45.671875 46.304688 45.230469 C 46.304688 44.792969 45.949219 44.4375 45.507812 44.4375 Z M 45.507812 44.4375 "/> <path style=" stroke:none;fill-rule:nonzero;fill:rgb(93.72549%,26.666667%,26.666667%);fill-opacity:1;" d="M 18.5 47.167969 C 17.433594 47.167969 16.566406 46.296875 16.566406 45.230469 C 16.566406 44.164062 17.433594 43.296875 18.5 43.296875 C 19.566406 43.296875 20.433594 44.164062 20.433594 45.230469 C 20.433594 46.296875 19.566406 47.167969 18.5 47.167969 Z M 18.5 44.4375 C 18.0625 44.4375 17.703125 44.792969 17.703125 45.230469 C 17.703125 45.671875 18.0625 46.027344 18.5 46.027344 C 18.941406 46.027344 19.296875 45.671875 19.296875 45.230469 C 19.296875 44.792969 18.941406 44.4375 18.5 44.4375 Z M 18.5 44.4375 "/> <path style=" stroke:none;fill-rule:nonzero;fill:rgb(93.72549%,26.666667%,26.666667%);fill-opacity:1;" d="M 20.546875 40.496094 L 13.636719 40.496094 C 13.324219 40.496094 13.070312 40.242188 13.070312 39.925781 C 13.070312 39.613281 13.324219 39.359375 13.636719 39.359375 L 20.546875 39.359375 C 20.859375 39.359375 21.117188 39.613281 21.117188 39.925781 C 21.117188 40.242188 20.859375 40.496094 20.546875 40.496094 Z M 20.546875 40.496094 "/> <path style=" stroke:none;fill-rule:nonzero;fill:rgb(93.72549%,26.666667%,26.666667%);fill-opacity:1;" d="M 50.363281 40.496094 L 43.453125 40.496094 C 43.140625 40.496094 42.882812 40.242188 42.882812 39.925781 C 42.882812 39.613281 43.140625 39.359375 43.453125 39.359375 L 50.363281 39.359375 C 50.675781 39.359375 50.929688 39.613281 50.929688 39.925781 C 50.929688 40.242188 50.675781 40.496094 50.363281 40.496094 Z M 50.363281 40.496094 "/> <path style=" stroke:none;fill-rule:nonzero;fill:rgb(93.72549%,26.666667%,26.666667%);fill-opacity:1;" d="M 43.855469 39.527344 C 43.632812 39.304688 43.273438 39.304688 43.050781 39.527344 L 38.628906 43.945312 L 25.367188 43.945312 L 20.949219 39.523438 C 20.726562 39.304688 20.367188 39.304688 20.144531 39.523438 C 19.921875 39.746094 19.921875 40.109375 20.144531 40.328125 L 24.730469 44.917969 C 24.90625 45.089844 25.199219 45.082031 25.433594 45.082031 L 38.566406 45.082031 C 38.796875 45.082031 39.097656 45.089844 39.269531 44.914062 L 43.855469 40.328125 C 44.078125 40.109375 44.078125 39.746094 43.855469 39.527344 Z M 43.855469 39.527344 "/> </g> </svg>

<svg xmlns="http://www.w3.org/2000/svg" width="64" height="64"><path d="M49.266 50.633H14.734a1.666 1.666 0 0 1-1.664-1.668V2.235c0-.919.746-1.665 1.664-1.665h34.532c.918 0 1.664.746 1.664 1.664v46.73c0 .919-.746 1.669-1.664 1.669ZM14.734 1.707a.53.53 0 0 0-.527.527v46.73c0 .294.238.528.527.528h34.532c.289 0 .527-.234.527-.527V2.235a.53.53 0 0 0-.527-.528Zm0 0" style="stroke:none;fill-rule:nonzero;fill:#ef4444;fill-opacity:1"/><path d="m33.648 34.059-.132-1.13c6.527-.761 11.445-6.296 11.445-12.874C44.96 12.906 39.148 7.09 32 7.09c-7.148 0-12.965 5.816-12.965 12.965 0 6.582 4.922 12.113 11.45 12.875l-.133 1.129c-7.098-.829-12.454-6.848-12.454-14.004 0-7.778 6.329-14.102 14.102-14.102 7.773 0 14.102 6.324 14.102 14.102 0 7.156-5.356 13.175-12.454 14.004Zm0 0" style="stroke:none;fill-rule:nonzero;fill:#ef4444;fill-opacity:1"/><path d="M32 25.016a4.968 4.968 0 0 1-4.96-4.961A4.965 4.965 0 0 1 32 15.094a4.965 4.965 0 0 1 4.96 4.96A4.968 4.968 0 0 1 32 25.017Zm0-8.786a3.828 3.828 0 0 0-3.824 3.825A3.827 3.827 0 0 0 32 23.875a3.827 3.827 0 0 0 3.824-3.82A3.828 3.828 0 0 0 32 16.23Zm0 0" style="stroke:none;fill-rule:nonzero;fill:#ef4444;fill-opacity:1"/><path d="M32 22.082a2.03 2.03 0 0 1 0-4.059 2.03 2.03 0 0 1 0 4.059Zm0-2.918a.89.89 0 1 0 0 1.78.89.89 0 0 0 0-1.78ZM32 42.79a3.453 3.453 0 0 1-2.742-1.337 3.45 3.45 0 0 1-.645-2.98l2.832-11.586a.572.572 0 0 1 1.11 0l2.832 11.586a3.45 3.45 0 0 1-.645 2.98A3.453 3.453 0 0 1 32 42.79Zm0-13.372-2.281 9.328a2.321 2.321 0 0 0 .433 2.008c.446.57 1.121.898 1.848.898.727 0 1.398-.328 1.848-.898.449-.57.605-1.305.433-2.008Zm0 0" style="stroke:none;fill-rule:nonzero;fill:#ef4444;fill-opacity:1"/><path d="M32 40.906a1.57 1.57 0 1 1 0-3.14 1.57 1.57 0 0 1 0 3.14Zm0-2.004a.435.435 0 0 0-.434.434c0 .238.196.434.434.434a.435.435 0 0 0 .434-.434.435.435 0 0 0-.434-.434ZM18.492 7.898a1.936 1.936 0 0 1-1.933-1.933c0-1.067.867-1.934 1.933-1.934 1.067 0 1.934.867 1.934 1.934a1.936 1.936 0 0 1-1.934 1.933Zm0-2.73a.798.798 0 1 0 .002 1.592.798.798 0 0 0-.002-1.592ZM45.508 7.898a1.936 1.936 0 0 1-1.934-1.933c0-1.067.867-1.934 1.934-1.934 1.066 0 1.933.867 1.933 1.934a1.936 1.936 0 0 1-1.933 1.933Zm0-2.73a.798.798 0 1 0 .001 1.595.798.798 0 0 0-.001-1.595ZM45.508 47.168a1.936 1.936 0 0 1 0-3.871 1.936 1.936 0 0 1 0 3.871Zm0-2.73a.797.797 0 0 0-.797.792.798.798 0 0 0 1.594 0 .794.794 0 0 0-.797-.792ZM18.5 47.168a1.936 1.936 0 0 1 0-3.871 1.936 1.936 0 0 1 0 3.871Zm0-2.73a.797.797 0 0 0-.797.792.798.798 0 0 0 1.594 0 .794.794 0 0 0-.797-.792ZM20.547 40.496h-6.91a.568.568 0 0 1 0-1.137h6.91a.57.57 0 0 1 .57.567c0 .316-.258.57-.57.57ZM50.363 40.496h-6.91a.571.571 0 0 1-.57-.57.57.57 0 0 1 .57-.567h6.91a.568.568 0 0 1 0 1.137Zm0 0" style="stroke:none;fill-rule:nonzero;fill:#ef4444;fill-opacity:1"/><path d="M43.855 39.527a.568.568 0 0 0-.804 0l-4.422 4.418H25.367l-4.418-4.422a.568.568 0 1 0-.805.805l4.586 4.59c.176.172.47.164.704.164h13.132c.23 0 .532.008.704-.168l4.585-4.586a.563.563 0 0 0 0-.8Zm0 0" style="stroke:none;fill-rule:nonzero;fill:#ef4444;fill-opacity:1"/></svg>
